Origami/16x16/apps/feedindicator.svg

<svg width="16" height="16" version="1.1" viewBox="0 0 16 16" xmlns="http://www.w3.org/2000/svg">
 <path d="m16 8c0 4.418278-3.581722 8-8 8s-8-3.581722-8-8 3.581722-8 8-8c0.089712 0 0.254836 0.66435544 0.3438348 0.6672858 2.0025962 0.0659371 2.9098432 1.1709244 4.2781122 2.4470934 1.513665 1.4117776 2.725191 2.4190548 2.7877 4.6370776 0.00215 0.0762724 0.590353 0.1717512 0.590353 0.2485432z" style="fill:#8e8e8e"/>
 <path d="m16 8h-8v-8c4.418278 0 8 3.581722 8 8z" style="fill:#ff9044"/>
 <path d="m8 2a6 6 0 0 0 -6 6 6 6 0 0 0 6 6 6 6 0 0 0 6 -6 6 6 0 0 0 -6 -6zm0 1a5 5 0 0 1 5 5 5 5 0 0 1 -5 5 5 5 0 0 1 -5 -5 5 5 0 0 1 5 -5z" style="fill:#ffffff"/>
 <circle cx="8" cy="8" r="3" style="fill:#ffffff"/>
 <circle cx="8" cy="8" r="2" style="fill:#3f3f3f"/>
</svg>

<svg xmlns="http://www.w3.org/2000/svg" width="16" height="16" version="1.1" viewBox="0 0 16 16">
 <path style="fill:#8e8e8e" d="m 16,8 c 0,4.418278 -3.581722,8 -8,8 C 3.581722,16 0,12.418278 0,8 0,3.581722 3.581722,0 8,0 c 0.089712,0 0.254836,0.66435544 0.3438348,0.6672858 2.0025962,0.0659371 2.9098432,1.1709244 4.2781122,2.4470934 1.513665,1.4117776 2.725191,2.4190548 2.7877,4.6370776 C 15.411797,7.8277292 16,7.923208 16,8 Z"/>
 <path style="fill:#ff9044" d="M 16,8 C 16,8 12.418278,8 8,8 L 8,0 c 4.418278,0 8,3.581722 8,8 z"/>
 <path style="fill:#ffffff" d="M 8 2 A 6 6 0 0 0 2 8 A 6 6 0 0 0 8 14 A 6 6 0 0 0 14 8 A 6 6 0 0 0 8 2 z M 8 3 A 5 5 0 0 1 13 8 A 5 5 0 0 1 8 13 A 5 5 0 0 1 3 8 A 5 5 0 0 1 8 3 z"/>
 <circle cx="8" cy="8" r="3" style="fill:#ffffff"/>
 <circle style="fill:#3f3f3f" cx="8" cy="8" r="2"/>
</svg>
